dist/img/surf/surf-bg.svg

<svg width="149" height="351" viewBox="0 0 149 351" fill="none" xmlns="http://www.w3.org/2000/svg">
<g opacity="0.03">
<path fill-rule="evenodd" clip-rule="evenodd" d="M147.191 0.810669C180.607 0.810669 213.051 12.0923 238.631 32.5799V32.5791C272.047 59.3254 291.701 97.355 294.078 139.636C296.355 181.38 280.752 222.222 251.288 251.681L153.617 348.06C149.833 351.81 143.271 351.776 139.487 348.027L43.196 251.751C13.6649 222.224 -1.97137 181.349 0.338888 139.637C2.68232 97.3575 22.37 59.3279 55.7515 32.5799C81.2986 12.0923 113.777 0.810669 147.191 0.810669ZM81.5669 147.777C81.5669 183.965 110.997 213.391 147.191 213.391C183.385 213.391 212.85 183.966 212.816 147.777C212.816 111.589 183.386 82.163 147.191 82.163C110.998 82.163 81.5669 111.588 81.5669 147.777Z" fill="white"/>
<path d="M147.191 115.795C129.546 115.795 115.216 130.124 115.216 147.766C115.216 165.408 129.546 179.737 147.191 179.737C164.837 179.737 179.167 165.408 179.167 147.766C179.167 130.124 164.837 115.795 147.191 115.795Z" fill="white"/>
</g>
</svg>

<svg width="149" height="351" fill="none" xmlns="http://www.w3.org/2000/svg"><g opacity=".03" fill="#fff"><path fill-rule="evenodd" clip-rule="evenodd" d="M147.191.81c33.416 0 65.86 11.282 91.44 31.77 33.416 26.745 53.07 64.775 55.447 107.056 2.277 41.744-13.326 82.586-42.79 112.045l-97.671 96.379c-3.784 3.75-10.346 3.716-14.13-.033l-96.291-96.276C13.665 222.224-1.971 181.349.339 139.637 2.682 97.357 22.37 59.327 55.752 32.58 81.299 12.092 113.776.81 147.19.81zM81.567 147.778c0 36.188 29.43 65.614 65.624 65.614 36.194 0 65.659-29.425 65.625-65.614 0-36.188-29.43-65.614-65.625-65.614-36.193 0-65.624 29.425-65.624 65.614z"/><path d="M147.191 115.795c-17.645 0-31.975 14.329-31.975 31.971s14.33 31.971 31.975 31.971c17.646 0 31.976-14.329 31.976-31.971s-14.33-31.971-31.976-31.971z"/></g></svg>
